X: 011
T: The Marquis of Huntly's Farewell
R: strathspey
M: C|
L: 1/16
Q: "Slow"
Z: 2012 John Chambers <jc:trillian.mit.edu>
B: J. Anderson "Budget of Strathspeys, Reels and Country Dances" (Early 1800s) p.1 #2
F: http://imslp.org/wiki/Anderson%27s_Budget_of_Strathspeys,_Reels_and_Country_Dances_(Various)
N: The 8va notation for bars 9 & 10 is a bit odd.
K: D
[|\
D6 F2 AAA2 (A2B) | d3ef3e d4(d3f) | D6 F2 AAA2 A3B | e3f (gf)(ed) (e2B2)B3d |
D3 F2 AAA2 TA4 | d3e defe d4 (d3f) | g6 b2 fff2 (f3a) | (eg)(fa) (gf)(ed) e2B2B2 |]
"^8va"d2 |\
(BA)(GF) (d2F2) (e2F2) d4 | (BA)(GF) Dd(cd) B3AG3F | E3ee3B (ed)(cd) e4 | E3ee3d (d2c2B2d2) |
(BA)(GF) (d2F2) (e2F2) d4 | (BA)(GF) d3c B3AG3F | (GA)(Bc) d3c B3AG3F | E3F (GF)(ED) E2B2B2d2 |]

%%sep 2 1 500
%%sep 1 1 500

